Numix/64/apps/live.svg

<?xml version="1.0" encoding="UTF-8" standalone="yes"?>
<svg xmlns="http://www.w3.org/2000/svg" xmlns:xlink="http://www.w3.org/1999/xlink" width="64px" height="64px" viewBox="0 0 48 48" version="1.1">
  <g id="surface1">
    <path style=" stroke:none;fill-rule:nonzero;fill:rgb(0%,44.313725%,77.647059%);fill-opacity:1;" d="M 27 17 L 27 21.78125 L 28.679688 23 L 28.859375 23 L 36 18 C 36 17.4375 35.601562 17 35 17 Z M 27 17 "/>
    <path style=" stroke:none;fill-rule:nonzero;fill:rgb(0%,44.313725%,77.647059%);fill-opacity:1;" d="M 27.019531 23.535156 L 28.535156 24.5625 C 28.746094 24.71875 29.003906 24.5625 29.003906 24.5625 C 28.75 24.71875 36 20 36 20 L 36 29 C 36 29.609375 35.695312 30 35 30 L 27 30 Z M 27.019531 23.535156 "/>
    <path style=" stroke:none;fill-rule:nonzero;fill:rgb(0%,44.313725%,77.647059%);fill-opacity:1;" d="M 19.183594 21.371094 C 18.664062 21.371094 18.253906 21.609375 17.953125 22.089844 C 17.648438 22.566406 17.496094 23.199219 17.496094 23.988281 C 17.496094 24.789062 17.648438 25.421875 17.953125 25.886719 C 18.253906 26.355469 18.652344 26.585938 19.144531 26.585938 C 19.652344 26.585938 20.054688 26.359375 20.351562 25.90625 C 20.648438 25.453125 20.800781 24.824219 20.800781 24.023438 C 20.800781 23.1875 20.65625 22.535156 20.367188 22.066406 C 20.078125 21.601562 19.683594 21.371094 19.183594 21.371094 Z M 19.183594 21.371094 "/>
    <path style=" stroke:none;fill-rule:nonzero;fill:rgb(0%,44.313725%,77.647059%);fill-opacity:1;" d="M 12 15 L 12 33 L 26 36 L 26 12 Z M 21.453125 26.992188 C 20.855469 27.769531 20.078125 28.160156 19.117188 28.160156 C 18.179688 28.160156 17.417969 27.78125 16.828125 27.027344 C 16.242188 26.277344 15.945312 25.292969 15.945312 24.085938 C 15.945312 22.808594 16.246094 21.773438 16.84375 20.984375 C 17.441406 20.199219 18.234375 19.800781 19.222656 19.800781 C 20.152344 19.800781 20.910156 20.179688 21.484375 20.933594 C 22.058594 21.691406 22.347656 22.683594 22.347656 23.921875 C 22.347656 25.191406 22.050781 26.214844 21.453125 26.992188 Z M 21.453125 26.992188 "/>
  </g>
</svg>

<svg xmlns="http://www.w3.org/2000/svg" width="64" height="64" viewBox="0 0 48 48">
 <g>
  <path d="m 27 17 l 0 4.781 l 1.68 1.219 l 0.18 0 l 7.141 -5 c 0 -0.563 -0.398 -1 -1 -1 m -8 0" style="fill:#0070c6;fill-opacity:1;stroke:none;fill-rule:nonzero"/>
  <path d="m 27.02 23.535 l 1.516 1.027 c 0.211 0.156 0.469 0 0.469 0 c -0.254 0.156 6.996 -4.563 6.996 -4.563 l 0 9 c 0 0.609 -0.305 1 -1 1 l -8 0 m 0.02 -6.465" style="fill:#0070c6;fill-opacity:1;stroke:none;fill-rule:nonzero"/>
  <path d="m 19.18 21.371 c -0.52 0 -0.93 0.238 -1.23 0.719 c -0.305 0.477 -0.457 1.109 -0.457 1.898 c 0 0.801 0.152 1.434 0.457 1.898 c 0.301 0.469 0.699 0.699 1.191 0.699 c 0.508 0 0.91 -0.227 1.207 -0.68 c 0.297 -0.453 0.449 -1.082 0.449 -1.883 c 0 -0.836 -0.145 -1.488 -0.434 -1.957 c -0.289 -0.465 -0.684 -0.695 -1.184 -0.695 m 0 0" style="fill:#0070c6;fill-opacity:1;stroke:none;fill-rule:nonzero"/>
  <path d="m 12 15 l 0 18 l 14 3 l 0 -24 m -4.547 14.992 c -0.598 0.777 -1.375 1.168 -2.336 1.168 c -0.938 0 -1.699 -0.379 -2.289 -1.133 c -0.586 -0.75 -0.883 -1.734 -0.883 -2.941 c 0 -1.277 0.301 -2.313 0.898 -3.102 c 0.598 -0.785 1.391 -1.184 2.379 -1.184 c 0.93 0 1.688 0.379 2.262 1.133 c 0.574 0.758 0.863 1.75 0.863 2.988 c 0 1.27 -0.297 2.293 -0.895 3.07 m 0 0" style="fill:#0070c6;fill-opacity:1;stroke:none;fill-rule:nonzero"/>
 </g>
</svg>
